assets/img/services/engenharia-civil.svg

<svg fill="none" height="188" viewBox="0 0 189 188" width="189" xmlns="http://www.w3.org/2000/svg"><path d="m95.2005 187.79c51.5595 0 93.3575-41.798 93.3575-93.358 0-51.5599-41.798-93.35742-93.3575-93.35742-51.5599 0-93.35748 41.79752-93.35748 93.35742 0 51.56 41.79758 93.358 93.35748 93.358z" fill="#ed7e03"/><path d="m93.2987.728821c-51.1737.518649-92.493036 42.010879-92.493036 93.357479 0 51.3467 41.319336 92.8387 92.493036 93.3577z" fill="#bf6104"/><g fill="#fff"><path d="m93.1257 143.185c-30.4277-1.901-49.7907-5.705-63.1028-12.274l-1.2102-.519v-13.312l7.7798-2.593c-1.0373-29.9093 9.5087-48.9265 33.3667-59.9911l1.9017 3.9763c-22.302 10.3731-32.1564 28.6988-30.7734 57.5708v1.556l-7.7798 2.593v7.434c12.6206 5.878 31.8107 9.509 60.1637 11.237z"/><path d="m95.5461 94.4321h-4.3221v-46.333c-1.3831 0-2.5933 0-3.8035 0-6.3967-.1729-11.4104-.1729-13.3121 1.5559-.3458.3458-1.0373 1.2103-1.0373 3.2849v25.9326h-4.3221v-25.9326c0-2.7662.6916-4.8408 2.2475-6.3968 3.1119-3.1119 8.6442-2.939 16.424-2.7661h5.8781 2.2475z"/><path d="m93.4718 143.185-.3458-4.322c28.526-1.728 47.716-5.359 60.164-11.237v-7.434l-7.78-2.593v-1.556c1.383-28.872-8.299-47.1977-30.774-57.5708l1.902-3.9763c23.685 11.0646 34.404 30.2547 33.367 59.9911l7.78 2.593v13.312l-1.211.519c-13.312 6.742-32.848 10.546-63.1022 12.274z"/><path d="m95.5462 94.4321h-4.3221v-50.6551h2.2475 5.8781c7.7793-.1729 13.3123-.3458 16.4243 2.7661 1.556 1.556 2.247 3.6306 2.247 6.3968v25.9326h-4.322v-25.9326c0-2.0746-.519-2.7662-1.037-3.2849-1.902-1.7288-6.916-1.7288-13.3123-1.5559-1.2102 0-2.4204 0-3.8035 0z"/><path d="m131.333 114.832h-76.0688v4.323h76.0688z"/></g></svg>

<svg width="189" height="188" viewBox="0 0 189 188" fill="none" xmlns="http://www.w3.org/2000/svg">
<path d="M95.2005 187.79C146.76 187.79 188.558 145.992 188.558 94.432C188.558 42.8721 146.76 1.07458 95.2005 1.07458C43.6406 1.07458 1.84302 42.8721 1.84302 94.432C1.84302 145.992 43.6406 187.79 95.2005 187.79Z" fill="#ED7E03"/>
<path d="M93.2987 0.728821C42.125 1.24747 0.805664 42.7397 0.805664 94.0863C0.805664 145.433 42.125 186.925 93.2987 187.444V0.728821Z" fill="#BF6104"/>
<path d="M93.1257 143.185C62.698 141.284 43.335 137.48 30.0229 130.911L28.8127 130.392V117.08L36.5925 114.487C35.5552 84.5777 46.1012 65.5605 69.9592 54.4959L71.8609 58.4722C49.5589 68.8453 39.7045 87.171 41.0875 116.043V117.599L33.3077 120.192V127.626C45.9283 133.504 65.1184 137.135 93.4714 138.863L93.1257 143.185Z" fill="white"/>
<path d="M95.5461 94.4321H91.224V48.0991C89.8409 48.0991 88.6307 48.0991 87.4205 48.0991C81.0238 47.9262 76.0101 47.9262 74.1084 49.655C73.7626 50.0008 73.0711 50.8653 73.0711 52.9399V78.8725H68.749V52.9399C68.749 50.1737 69.4406 48.0991 70.9965 46.5431C74.1084 43.4312 79.6407 43.6041 87.4205 43.777C89.3222 43.777 91.224 43.777 93.2986 43.777H95.5461V94.4321V94.4321Z" fill="white"/>
<path d="M93.4718 143.185L93.126 138.863C121.652 137.135 140.842 133.504 153.29 127.626V120.192L145.51 117.599V116.043C146.893 87.171 137.211 68.8453 114.736 58.4722L116.638 54.4959C140.323 65.5605 151.042 84.7506 150.005 114.487L157.785 117.08V130.392L156.574 130.911C143.262 137.653 123.726 141.457 93.4718 143.185Z" fill="white"/>
<path d="M95.5462 94.4321H91.2241V43.777H93.4716C95.5462 43.777 97.6208 43.777 99.3497 43.777C107.129 43.6041 112.662 43.4312 115.774 46.5431C117.33 48.0991 118.021 50.1737 118.021 52.9399V78.8725H113.699V52.9399C113.699 50.8653 113.18 50.1737 112.662 49.655C110.76 47.9262 105.746 47.9262 99.3497 48.0991C98.1395 48.0991 96.9293 48.0991 95.5462 48.0991V94.4321V94.4321Z" fill="white"/>
<path d="M131.333 114.832H55.2642V119.155H131.333V114.832Z" fill="white"/>
</svg>
